X: 2708
T: Banks Of Lough Gowna, The
R: jig
M: 6/8
K: Aminor
|:A3 AGE|EDE G3|A3 AGE|=c2d edc|
A/B/cA AGE|EDE G3|cde =fed|1 ecA A2G:|2 ecA A2B||
|:cde g3|gea ged|cEG cde|=f3 ecA|
cde g3|gea ged|cde =fed|1 ecA A2B:|2 ecA A2G||

